!!!OTL: "Liebeskummer" DASS IM WALD FINSTER IS
!!!ARE: Europa, Mitteleuropa, Oesterreich
!!!SCT: Z1233
!!!YEM: Copyright 1995, estate of Helmut Schaffrath.
**kern
*ICvox
*Ivox
*M3/4
*k[f#]
*G:
=1
{12b
12dd
12gg
2g
=2
8d
8g
8g
8b
8b
8dd
=3
4.dd
8cc
4f#}
=4
{12a
12cc
12ff#
2f#
=5
8d
8f#
4f#
4f#
=6
2dd}
{8dd
8cc
=7
12b
12dd
12gg
2g
=8
8d
8g
8g
8b
8b
8dd
=9
4.dd
8cc
4f#}
=10
{12a
12cc
12ff#
2f#
=11
8d
8f#
8ee
8dd
8cc
8f#
=12
2g
4r}
==
!!!AGN: Liebes - Lied, verlassene Liebe
!!!ONB: ESAC (Essen Associative Code) Database: ZUCCAL
!!!AMT: simple triple
!!!AIN: vox
!!!EED: Helmut Schaffrath
!!!EEV: 1.0
*-
